web/packages/design/src/ResourceIcon/assets/gmail.svg

<svg width="72" height="72" viewBox="0 0 72 72" fill="none" xmlns="http://www.w3.org/2000/svg">
<g clip-path="url(#clip0_8803_4393)">
<path d="M4.90909 63H16.3636V35.189L0 22.9194V58.0921C0 60.8078 2.20091 63 4.90909 63Z" fill="#4285F4"/>
<path d="M55.6367 63H67.0913C69.8076 63 72.0004 60.7996 72.0004 58.0921V22.9194L55.6367 35.189" fill="#34A853"/>
<path d="M55.6367 13.9217V35.189L72.0004 22.9194V16.3757C72.0004 10.3063 65.0704 6.8463 60.2185 10.4863" fill="#FBBC04"/>
<path d="M16.3633 35.1886V13.9214L35.9996 28.6448L55.636 13.9214V35.1886L35.9996 49.9121" fill="#EA4335"/>
<path d="M0 16.3757V22.9194L16.3636 35.189V13.9217L11.7818 10.4863C6.92182 6.8463 0 10.3063 0 16.3757Z" fill="#C5221F"/>
</g>
<defs>
<clipPath id="clip0_8803_4393">
<rect width="72" height="72" fill="white"/>
</clipPath>
</defs>
</svg>

<svg xmlns="http://www.w3.org/2000/svg" width="72" height="72" fill="none" viewBox="0 0 72 72"><g clip-path="url(#a)"><path fill="#4285f4" d="M4.91 63h11.454V35.189L0 22.919v35.173C0 60.808 2.2 63 4.91 63"/><path fill="#34a853" d="M55.637 63H67.09c2.717 0 4.91-2.2 4.91-4.908V22.92L55.636 35.19"/><path fill="#fbbc04" d="M55.637 13.922v21.267L72 22.919v-6.543c0-6.07-6.93-9.53-11.782-5.89"/><path fill="#ea4335" d="M16.363 35.189V13.92L36 28.645 55.636 13.92v21.27L36 49.912"/><path fill="#c5221f" d="M0 16.376v6.543l16.364 12.27V13.922l-4.582-3.436C6.922 6.846 0 10.306 0 16.376"/></g><defs><clipPath id="a"><path fill="#fff" d="M0 0h72v72H0z"/></clipPath></defs></svg>
